img/svg/certif-logo.svg

<svg width="56" height="56" viewBox="0 0 56 56" fill="none" xmlns="http://www.w3.org/2000/svg">
<g filter="url(#filter0_d)">
<path fill-rule="evenodd" clip-rule="evenodd" d="M27.9997 0C41.2185 0 52 10.7813 52 23.9999C52 37.2187 41.2185 48 27.9997 48C14.7812 48 4 37.2185 4 23.9999C4 10.7813 14.7812 0 27.9997 0ZM27.9997 4.32763C38.835 4.32763 47.6724 13.1648 47.6724 23.9999C47.6724 34.8352 38.835 43.6724 27.9997 43.6724C17.1647 43.6724 8.32787 34.8349 8.32787 23.9999C8.32787 13.1648 17.165 4.32763 27.9997 4.32763Z" fill="black"/>
<path fill-rule="evenodd" clip-rule="evenodd" d="M39.4846 36.9571H29.8927V18.015H34.4769V33.0982H39.4846V36.9571ZM28.0553 24.805C28.0553 28.2585 25.7702 30.1389 22.4994 30.1389H21.8268C18.5816 30.1389 16.2208 28.4625 16.2208 24.9558V10.8958H20.8053V25.1971C20.8053 26.1992 21.2038 26.7002 22.001 26.7002H22.2502C23.2715 26.7002 23.4712 25.719 23.4712 24.8964V10.8958H28.0553V24.805ZM19.4445 34.0034C19.4445 35.4872 20.6445 36.6944 22.1197 36.6944C23.6101 36.6944 24.7947 35.4872 24.7947 34.0034C24.7947 32.5195 23.6099 31.3129 22.1197 31.3129C20.6445 31.3132 19.4445 32.5195 19.4445 34.0034ZM19.949 34.0034C19.949 32.7351 20.9272 31.7205 22.1197 31.7205C23.3197 31.7205 24.2901 32.7351 24.2901 34.0034C24.2901 35.2644 23.3271 36.2863 22.1197 36.2863C20.9272 36.2866 19.949 35.2644 19.949 34.0034ZM21.1413 35.3257H21.6381V34.2112H22.043C22.6088 34.2112 22.624 34.4648 22.6314 34.7106C22.6469 35.1567 22.6392 35.2181 22.7307 35.3257H23.2427C23.1357 35.1798 23.1586 35.1029 23.1357 34.6876C23.1203 34.4187 23.0974 34.1113 22.7536 34.0422V34.0264C23.1509 33.8652 23.2044 33.5961 23.2044 33.4113C23.2044 32.7121 22.6083 32.6352 22.3255 32.6352H21.1407V35.3257H21.1413ZM21.6381 33.004H22.1578C22.4789 33.004 22.7004 33.0886 22.7004 33.4113C22.7004 33.6038 22.624 33.8422 22.2113 33.8422H21.6381V33.004Z" fill="black"/>
</g>
<defs>
<filter id="filter0_d" x="0" y="0" width="56" height="56" filterUnits="userSpaceOnUse" color-interpolation-filters="sRGB">
<feFlood flood-opacity="0" result="BackgroundImageFix"/>
<feColorMatrix in="SourceAlpha" type="matrix" values="0 0 0 0 0 0 0 0 0 0 0 0 0 0 0 0 0 0 127 0"/>
<feOffset dy="4"/>
<feGaussianBlur stdDeviation="2"/>
<feColorMatrix type="matrix" values="0 0 0 0 0 0 0 0 0 0 0 0 0 0 0 0 0 0 0.25 0"/>
<feBlend mode="normal" in2="BackgroundImageFix" result="effect1_dropShadow"/>
<feBlend mode="normal" in="SourceGraphic" in2="effect1_dropShadow" result="shape"/>
</filter>
</defs>
</svg>

<svg width="56" height="56" viewBox="0 0 56 56" fill="none" xmlns="http://www.w3.org/2000/svg"><g filter="url(#filter0_d)" fill-rule="evenodd" clip-rule="evenodd" fill="#000"><path d="M28 0c13.218 0 24 10.781 24 24S41.218 48 28 48C14.78 48 4 37.218 4 24 4 10.78 14.781 0 28 0zm0 4.328c10.835 0 19.672 8.837 19.672 19.672S38.835 43.672 28 43.672 8.328 34.835 8.328 24 17.165 4.328 28 4.328z"/><path d="M39.485 36.957h-9.592V18.015h4.584v15.083h5.008v3.86zm-11.43-12.152c0 3.454-2.285 5.334-5.556 5.334h-.672c-3.245 0-5.606-1.677-5.606-5.183v-14.06h4.584v14.301c0 1.002.399 1.503 1.196 1.503h.25c1.02 0 1.22-.981 1.22-1.804v-14h4.584v13.909zm-8.61 9.198c0 1.484 1.2 2.691 2.675 2.691a2.676 2.676 0 002.675-2.69 2.676 2.676 0 00-2.675-2.691 2.686 2.686 0 00-2.675 2.69zm.504 0c0-1.268.978-2.282 2.17-2.282 1.2 0 2.171 1.014 2.171 2.282 0 1.261-.963 2.283-2.17 2.283-1.193 0-2.171-1.022-2.171-2.283zm1.192 1.323h.497V34.21h.405c.566 0 .581.254.588.5.016.446.008.507.1.615h.512c-.107-.146-.084-.223-.107-.638-.016-.27-.039-.577-.382-.646v-.016c.397-.16.45-.43.45-.615 0-.699-.596-.776-.878-.776H21.14v2.69zm.497-2.322h.52c.32 0 .542.085.542.407 0 .193-.076.431-.489.431h-.573v-.838z"/></g><defs><filter id="filter0_d" x="0" y="0" width="56" height="56" filterUnits="userSpaceOnUse" color-interpolation-filters="sRGB"><feFlood flood-opacity="0" result="BackgroundImageFix"/><feColorMatrix in="SourceAlpha" values="0 0 0 0 0 0 0 0 0 0 0 0 0 0 0 0 0 0 127 0"/><feOffset dy="4"/><feGaussianBlur stdDeviation="2"/><feColorMatrix values="0 0 0 0 0 0 0 0 0 0 0 0 0 0 0 0 0 0 0.25 0"/><feBlend in2="BackgroundImageFix" result="effect1_dropShadow"/><feBlend in="SourceGraphic" in2="effect1_dropShadow" result="shape"/></filter></defs></svg>
